packages/web/src/assets/images/icons/rollback-question.svg

<svg fill="none" height="12" viewBox="0 0 12 12" width="12" xmlns="http://www.w3.org/2000/svg"><path clip-rule="evenodd" d="m3.82836 7.5665c.19526.19527.51185.19527.70711 0 .19526-.19526.19526-.51184 0-.7071l-2.17675-2.17675h5.15653c.75144 0 1.47211.29851 2.00347.82986.53138.53135.82988 1.25202.82988 2.00347s-.2985 1.47212-.82988 2.00347c-.53136.53135-1.25203.82985-2.00347.82985h-2.16162c-.27614 0-.5.2239-.5.5 0 .2762.22386.5.5.5h2.16162c1.01666 0 1.99168-.4039 2.71055-1.1227.7189-.71893 1.1228-1.69396 1.1228-2.71062s-.4039-1.99169-1.1228-2.71058c-.71886-.71889-1.69389-1.12275-2.71055-1.12275h-5.15653l2.17675-2.17675c.19526-.19527.19526-.511848 0-.70711s-.51185-.195262-.70711 0l-3.029739 3.02974-.000563.00056c-.00218.00218-.004336.00438-.006467.00659-.141903.14713-.175916.3598-.102041.53836.0244.05897.060569.11422.108508.16216z" fill="#ea4335" fill-rule="evenodd"/></svg>

<svg width="12" height="12" viewBox="0 0 12 12" fill="none" xmlns="http://www.w3.org/2000/svg">
    <path fill-rule="evenodd" clip-rule="evenodd" d="M3.82836 7.5665C4.02362 7.76177 4.34021 7.76177 4.53547 7.5665C4.73073 7.37124 4.73073 7.05466 4.53547 6.8594L2.35872 4.68265H7.51525C8.26669 4.68265 8.98736 4.98116 9.51872 5.51251C10.0501 6.04386 10.3486 6.76453 10.3486 7.51598C10.3486 8.26743 10.0501 8.9881 9.51872 9.51945C8.98736 10.0508 8.26669 10.3493 7.51525 10.3493H5.35363C5.07749 10.3493 4.85363 10.5732 4.85363 10.8493C4.85363 11.1255 5.07749 11.3493 5.35363 11.3493H7.51525C8.53191 11.3493 9.50693 10.9454 10.2258 10.2266C10.9447 9.50767 11.3486 8.53264 11.3486 7.51598C11.3486 6.49932 10.9447 5.52429 10.2258 4.8054C9.50694 4.08651 8.53191 3.68265 7.51525 3.68265H2.35872L4.53547 1.5059C4.73073 1.31063 4.73073 0.994052 4.53547 0.79879C4.34021 0.603528 4.02362 0.603528 3.82836 0.79879L0.798621 3.82853L0.798058 3.82909C0.795878 3.83127 0.793722 3.83347 0.791591 3.83568C0.649688 3.98281 0.615675 4.19548 0.68955 4.37404C0.71395 4.43301 0.750119 4.48826 0.798058 4.5362L3.82836 7.5665Z" fill="#EA4335"/>
</svg>
